frontend/public/svg/interface/message.svg

<svg width="158" height="141" viewBox="0 0 158 141" fill="none" xmlns="http://www.w3.org/2000/svg">
<g clip-path="url(#clip0)">
<path d="M25.3444 106.878C27.7828 108.544 28.102 109.755 26.8285 112.511C24.164 118.28 21.0905 125.117 18.4964 132.108C17.8052 133.97 17.7557 137.607 19.2508 139.067C20.4742 140.262 22.5497 140.426 24.5568 140.584C25.1503 140.631 25.7106 140.675 26.2382 140.744C26.3236 140.756 26.4095 140.761 26.4956 140.761C27.2256 140.692 27.9286 140.45 28.5463 140.056L28.8069 139.92C31.0067 138.785 33.2086 137.654 35.4126 136.526C41.7037 133.301 48.2085 129.963 54.5425 126.559L54.6018 126.528C62.2238 122.434 69.4168 118.566 78.2498 120.266C78.6185 120.325 78.9925 120.34 79.3651 120.309C79.483 120.303 79.6022 120.298 79.7188 120.297C100.703 120.106 116.873 115.762 130.606 106.626C151.64 92.6322 161.084 72.6056 156.517 51.6818C152.289 32.3089 143.953 20.2547 129.488 12.5985C114.782 4.81623 98.2103 0.344555 82.8262 0.00732422C82.8204 0.00829458 82.8145 0.00829458 82.8093 0.00732422C63.8205 0.0820479 47.9564 3.20238 32.8857 9.82936C14.6163 17.8612 4.59895 29.4004 2.26219 45.106C1.2549 51.4949 1.13475 57.9916 1.90517 64.4132C4.43476 83.9408 12.1024 97.831 25.3444 106.878ZM31.7762 122.668C33.0466 118.148 34.2452 113.879 35.7403 109.789C38.0855 103.379 34.6244 99.7777 31.3495 97.356C26.3685 93.6744 21.3302 89.436 18.2123 83.4113C10.1604 67.8526 9.06465 53.2775 14.86 38.8533C18.0032 31.0307 24.3842 25.2225 34.941 20.5741C49.512 14.1583 64.0147 10.9506 78.3527 10.9506C92.628 11.014 106.724 14.1301 119.691 20.088C134.661 26.8151 142.963 37.9101 145.818 55.0055C148.164 69.0345 144.266 80.7193 133.559 91.7764C124.025 101.622 111.17 107.416 93.1042 110.01C83.9989 111.317 73.2291 112.4 62.3899 110.52C61.0369 110.291 59.5235 111.136 58.2995 111.82C50.9622 115.933 43.6939 120.058 35.9996 124.425L30.3717 127.618C30.8629 125.919 31.3254 124.273 31.7762 122.668V122.668Z" fill="black"/>
<path d="M50.4727 69.7116H50.5632C51.5856 69.7084 52.597 69.5011 53.5381 69.1028C54.4792 68.7038 55.3311 68.1223 56.0439 67.3913C56.6562 66.761 57.1341 66.0131 57.4489 65.1938C57.7636 64.3742 57.9086 63.4996 57.8751 62.6226C57.7597 60.8352 56.9862 59.1535 55.7032 57.9004C54.4202 56.6472 52.7181 55.9107 50.9241 55.833C49.971 55.839 49.0285 56.034 48.1513 56.406C47.2742 56.778 46.4798 57.3195 45.8141 58C45.0885 58.6916 44.507 59.5195 44.1032 60.436C43.6994 61.3525 43.4811 62.34 43.4611 63.3409C43.4557 64.1543 43.6132 64.9604 43.9245 65.7123C44.2357 66.4641 44.6943 67.1457 45.2734 67.7188C46.6738 69.043 48.5435 69.7597 50.4727 69.7116Z" fill="black"/>
<path d="M81.3262 71.5141H81.3913C83.1594 71.4998 84.8499 70.7896 86.0955 69.5382C87.4055 68.2679 88.1606 66.533 88.1964 64.7109C88.2114 62.8915 87.2016 60.7403 85.5613 59.0997C84.4492 57.855 82.8981 57.0869 81.2317 56.9556H81.2109C77.8461 56.9751 74.4957 60.6551 74.4468 64.3848C74.4299 65.3173 74.5993 66.2438 74.9452 67.11C75.2905 67.9768 75.8051 68.7662 76.4598 69.4323C77.0924 70.0833 77.8481 70.6025 78.6832 70.9599C79.519 71.3172 80.4167 71.5057 81.3262 71.5141Z" fill="black"/>
<path d="M110.697 70.7603H110.74C112.416 70.6959 114.011 70.0228 115.225 68.8681C116.439 67.7128 117.189 66.1554 117.333 64.4883C117.287 62.8406 116.594 61.2767 115.402 60.1347C113.8 58.3543 111.576 57.2516 109.186 57.0521C108.579 57.0402 107.977 57.1519 107.416 57.3796C106.854 57.6072 106.345 57.9462 105.919 58.3764C105.249 59.0638 104.722 59.8774 104.37 60.7699C104.018 61.6623 103.847 62.6157 103.869 63.5745C103.828 65.4283 104.522 67.2223 105.801 68.5679C107.079 69.913 108.839 70.7018 110.697 70.7603Z" fill="black"/>
</g>
<defs>
<clipPath id="clip0">
<rect width="157" height="141" fill="white" transform="translate(0.777344)"/>
</clipPath>
</defs>
</svg>

<svg xmlns="http://www.w3.org/2000/svg" width="158" height="141" fill="none" viewBox="0 0 158 141"><g fill="#000" clip-path="url(#a)"><path d="M25.344 106.878c2.439 1.666 2.758 2.877 1.484 5.633-2.664 5.769-5.738 12.606-8.332 19.597-.69 1.862-.74 5.499.755 6.959 1.223 1.195 3.299 1.359 5.306 1.517.593.047 1.154.091 1.681.16q.129.018.258.017a4.6 4.6 0 0 0 2.05-.705l.26-.136q3.3-1.702 6.607-3.394c6.29-3.225 12.796-6.563 19.13-9.967l.059-.031c7.622-4.094 14.815-7.962 23.648-6.262.368.059.743.074 1.115.043a8 8 0 0 1 .354-.012c20.984-.191 37.154-4.535 50.887-13.671 21.034-13.994 30.478-34.02 25.911-54.944-4.228-19.373-12.564-31.427-27.029-39.083C114.782 4.816 98.21.345 82.826.007h-.017C63.821.082 47.956 3.202 32.886 9.83 14.616 17.861 4.599 29.4 2.262 45.106a70.2 70.2 0 0 0-.357 19.307c2.53 19.528 10.197 33.418 23.44 42.465m6.432 15.79c1.27-4.52 2.47-8.789 3.964-12.879 2.346-6.41-1.116-10.011-4.39-12.433-4.982-3.682-10.02-7.92-13.138-13.945-8.052-15.558-9.147-30.133-3.352-44.558 3.143-7.822 9.524-13.63 20.081-18.279 14.571-6.416 29.074-9.623 43.412-9.623a100.1 100.1 0 0 1 41.338 9.137c14.97 6.727 23.272 17.822 26.127 34.918 2.346 14.028-1.552 25.713-12.259 36.77-9.534 9.846-22.389 15.64-40.455 18.234-9.105 1.307-19.875 2.39-30.714.51-1.353-.229-2.867.616-4.09 1.3A4812 4812 0 0 0 36 124.425l-5.628 3.193c.49-1.699.953-3.345 1.404-4.95"/><path d="M50.473 69.712h.09a7.7 7.7 0 0 0 5.48-2.32 6.5 6.5 0 0 0 1.832-4.77 7.25 7.25 0 0 0-2.172-4.722 7.3 7.3 0 0 0-4.779-2.067A7.22 7.22 0 0 0 45.814 58a7.6 7.6 0 0 0-2.353 5.34 6.1 6.1 0 0 0 1.812 4.379 7.3 7.3 0 0 0 5.2 1.993m30.853 1.802h.065a6.7 6.7 0 0 0 4.704-1.976 6.9 6.9 0 0 0 2.101-4.827c.015-1.82-.994-3.97-2.635-5.611a6.5 6.5 0 0 0-4.33-2.144h-.02c-3.365.02-6.715 3.7-6.764 7.429a7.02 7.02 0 0 0 2.013 5.047 6.87 6.87 0 0 0 4.866 2.082m29.371-.754h.043a6.9 6.9 0 0 0 4.485-1.892 6.86 6.86 0 0 0 2.108-4.38 6.27 6.27 0 0 0-1.931-4.353 9.42 9.42 0 0 0-6.216-3.083 4.47 4.47 0 0 0-3.267 1.324 7.23 7.23 0 0 0-2.05 5.199 7.02 7.02 0 0 0 1.932 4.993 7.06 7.06 0 0 0 4.896 2.192"/></g><defs><clipPath id="a"><path fill="#fff" d="M.777 0h157v141h-157z"/></clipPath></defs></svg>
